brandFactory_export/3.Masa/Me gusta_3Masa.svg

<?xml version="1.0" encoding="UTF-8"?>
<svg width="24px" height="24px" viewBox="0 0 24 24" version="1.1" xmlns="http://www.w3.org/2000/svg" xmlns:xlink="http://www.w3.org/1999/xlink">
    <title>3.Masa/Me gusta_3Masa</title>
    <g id="Symbols" stroke="none" stroke-width="1" fill="none" fill-rule="evenodd">
        <g id="3.Masa/Me-gusta_3Masa" fill="#5CB615" fill-rule="nonzero">
            <path d="M18.0941176,0.0100840336 C19.5294118,0.0840336134 20.8537815,0.58487395 21.8252101,1.41848739 C23.4991597,2.85378151 24.0537815,5.2 23.3815126,8.02352941 C22.7630252,10.6184874 21.5663866,13.307563 19.8184874,16.0201681 C18.4369748,18.1680672 17.3277311,19.5563025 15.4521008,21.4957983 C15.4386555,21.512605 15.4252101,21.5294118 15.4084034,21.5462185 C15.2235294,21.7378151 14.5781513,22.3865546 14.0336134,22.7798319 C13.5764706,23.112605 13.0521008,23.3478992 12.5008403,23.4689076 C12.3428571,23.5058824 12.1815126,23.5294118 12.0201681,23.5361345 L12,23.5361345 C11.9495798,23.5428571 11.902521,23.5428571 11.8521008,23.5428571 L11.8319328,23.5428571 C11.7714286,23.5428571 11.7176471,23.5428571 11.6672269,23.5394958 L11.6470588,23.5394958 C11.4857143,23.5294118 11.3243697,23.5092437 11.1663866,23.4722689 C10.6151261,23.3478992 10.0907563,23.112605 9.63361345,22.7831933 C9.08571429,22.3865546 8.44033613,21.7344538 8.25546218,21.5462185 C6.34957983,19.5798319 5.23697479,18.1848739 3.84201681,16.0201681 C2.09747899,13.3109244 0.897478991,10.6184874 0.278991597,8.02016807 C-0.393277311,5.19663866 0.161344538,2.85378151 1.83529412,1.41512605 C2.80672269,0.58487395 4.13445378,0.0840336134 5.56638655,0.0100840336 C7.07563025,-0.0672268908 8.64201681,0.315966387 10.0941176,1.12268908 C10.5882353,1.39495798 11.0957983,1.6907563 11.6504202,2.01680672 C11.7613445,2.07731092 11.8957983,2.07731092 12.010084,2.01680672 C12.5647059,1.68739496 13.0722689,1.39495798 13.5697479,1.11932773 C15.0184874,0.315966387 16.5848739,-0.0672268908 18.0941176,0.0100840336 Z" id="Me-gusta_3Masa"></path>
        </g>
    </g>
</svg>

<svg width="24" height="24" viewBox="0 0 24 24" xmlns="http://www.w3.org/2000/svg"><path d="M18.094.01c1.435.074 2.76.575 3.731 1.408C23.5 2.854 24.054 5.2 23.382 8.024c-.619 2.594-1.816 5.284-3.564 7.996-1.381 2.148-2.49 3.536-4.366 5.476a.584.584 0 01-.044.05c-.184.192-.83.84-1.374 1.234a4.106 4.106 0 01-1.533.689c-.158.037-.32.06-.48.067H12c-.05.007-.097.007-.148.007h-.02c-.06 0-.114 0-.165-.004h-.02a2.903 2.903 0 01-.48-.067 4.215 4.215 0 01-1.533-.689c-.548-.396-1.194-1.049-1.379-1.237-1.905-1.966-3.018-3.361-4.413-5.526-1.745-2.71-2.945-5.402-3.563-8-.672-2.823-.118-5.166 1.556-6.605C2.807.585 4.135.084 5.566.01c1.51-.077 3.076.306 4.528 1.113.494.272 1.002.568 1.556.894.111.06.246.06.36 0 .555-.33 1.062-.622 1.56-.898C15.018.316 16.585-.067 18.094.01z" fill="#5CB615" fill-rule="nonzero"/></svg>
